X: 3248
T: The WARST CARLE IN A THE WORL'.
%R: jig
B: James Kerr "Merry Melodies" v.3 p.28 #248
Z: 2016 John Chambers <jc:trillian.mit.edu>
M: 6/8
L: 1/8
K: Amix
f |\
ecA ABc | d2c B2A | ecA AcA | B2c d2f |\
ecA AcA | d2c B2A | cec BdB | AAA A2 :|
|: g |\
fdf ece | fdf ecA | AAA (f2e) | fBB Bcd |\
efg afe | fac B2A | cec BdB | AAA A2 :|

%%sep 1 1 500
%%sep 1 1 500

